!!!COM: Palestrina, Giovanni Perluigi da
!!!OPR: Veni Sancte Spiritus
!!!OTL: Credo
**kern	**kern	**kern	**kern	**kern
*Ibass	*Itenor	*Itenor	*Icalto	*Icant
!Bassus	!Tenor 2	!Tenor 1	!Altus	!Cantus
*clefF4	*clefGv2	*clefGv2	*clefG2	*clefG2
*k[b-]	*k[b-]	*k[b-]	*k[b-]	*k[b-]
*G:dor	*G:dor	*G:dor	*G:dor	*G:dor
*M4/2	*M4/2	*M4/2	*M4/2	*M4/2
=1	=1	=1	=1	=1
1r	0d	0r	0r	0r
[1G	.	.	.	.
=2	=2	=2	=2	=2
1G]	1e	0r	0r	0r
1A	2.f	.	.	.
.	4e-	.	.	.
=3	=3	=3	=3	=3
2.B-	4d	0r	0r	1r
.	4c	.	.	.
.	2d	.	.	.
4A	.	.	.	.
2G	2B-	.	.	[1dd
2F#	2A	.	.	.
=4	=4	=4	=4	=4
1G	4B	0r	0g	1dd]
.	4c	.	.	.
.	4d	.	.	.
.	4B	.	.	.
1C	[1c	.	.	1ee
=5	=5	=5	=5	=5
1F	1c]	1r	1a	2.ff
.	.	.	.	4ee-
2BB-	1B-	[1d	2.b-	4dd
.	.	.	.	4cc
2B-	.	.	.	2dd
.	.	.	4a	.
=6	=6	=6	=6	=6
2B-	1r	1d]	2g	2b-
2d	.	.	2f#	2a
2.c	2r	1e	1g	1cc
.	[2c	.	.	.
4B-	.	.	.	.
=7	=7	=7	=7	=7
4A	2c]	2.f	0a	2cc
4G	.	.	.	.
2.F	1f	.	.	2cc
.	.	4e	.	.
.	.	2d	.	2dd
4D	.	.	.	.
2A	[2e	2c#	.	2ee
=8	=8	=8	=8	=8
1D	4e]	1d	0a	1ff
.	4d	.	.	.
.	1d	.	.	.
1r	.	1A	.	1ee
.	2c#	.	.	.
=9	=9	=9	=9	=9
1D	1d	2A	1f	0dd
.	.	2d	.	.
1G	1B-	4d	1g	.
.	.	4c	.	.
.	.	4d	.	.
.	.	4e	.	.
=10	=10	=10	=10	=10
1F	1c	1f	1a	0r
1B-	1d	1f	[1b-	.
=11	=11	=11	=11	=11
1E-	0e-	1g	2b-]	1b-
.	.	.	2g	.
1r	.	2c	1g	1cc
.	.	[2g	.	.
=12	=12	=12	=12	=12
0r	1d	2g]	2.a	1dd
.	.	2f#	.	.
.	.	.	4b-	.
.	1c	2g	1cc	1ee-
.	.	[2a	.	.
=13	=13	=13	=13	=13
0r	2.d	4a]	2f	1.dd
.	.	4g	.	.
.	.	4f	2.a	.
.	4e	4e	.	.
.	2f	2d	.	.
.	.	.	4b-	.
.	2e-	[2g	2g	2cc
=14	=14	=14	=14	=14
0r	1d	2g]	1a	1dd
.	.	2f#	.	.
.	1G	2g	2.b-	1dd
.	.	[2d	.	.
.	.	.	4a	.
=15	=15	=15	=15	=15
1G	1B-	2d]	1g	1r
.	.	2e	.	.
2A	2c	2.f	1r	2r
[2B-	[2d	.	.	[2dd
.	.	4f	.	.
=16	=16	=16	=16	=16
4B-]	4d]	2f	2r	2dd]
4B-	4d	.	.	.
2c	2A	2.e	1a	2ee
2d	[1a	.	.	2.ff
.	.	4d	.	.
2d	.	[2d	2f	.
.	.	.	.	4ff
=17	=17	=17	=17	=17
1A	2a]	2d]	2.a	2ff
.	2e	2c#	.	2.ee
.	.	.	4a	.
1D	2.f	2.d	2a	.
.	.	.	.	4dd
.	.	.	[2a	[2dd
.	8e	8c	.	.
.	8d	8B-	.	.
=18	=18	=18	=18	=18
0r	1e	1A	2a]	2dd]
.	.	.	2a	2cc#
.	1d	2r	2f	[1dd
.	.	[2B-	2f	.
=19	=19	=19	=19	=19
2r	1r	2B-]	2g	2dd]
1F	.	2c	1a	4cc
.	.	.	.	4b-
.	2r	2.d	.	2a
2G	2B-	.	[2b-	2g
.	.	4e	.	.
=20	=20	=20	=20	=20
1A	1c	2f	2b-]	0r
.	.	2.e	2.a	.
1B-	2.d	.	.	.
.	.	4d	4g	.
.	.	2d	4g	.
.	4e	.	8f	.
.	.	.	8g	.
=21	=21	=21	=21	=21
2A	2f#	2c	2a	0r
2G	2g	1d	2b-	.
1A	1e	.	1a	.
.	.	2c#	.	.
=22	=22	=22	=22	=22
1B-	2r	1d	1f	1r
.	2d	.	.	.
2G	2d	1B-	2g	1dd
[2G	[2g	.	[2b-	.
=23	=23	=23	=23	=23
2G]	2g]	2G	2b-]	2dd
2C	2e-	2.G	2cc	1gg
[1G	2d	.	[1b-	.
.	.	4G	.	.
.	2G	[2g	.	2ee-
=24	=24	=24	=24	=24
2G]	4B-	2g]	2b-]	2.dd
.	4c	.	.	.
2D	2.d	2f#	2a	.
.	.	.	.	4dd
1D	.	1f#	1a	1dd
.	8c	.	.	.
.	8B-	.	.	.
.	2A	.	.	.
=25	=25	=25	=25	=25
4G	2.B-	2g	1.g	0dd
4A	.	.	.	.
4B-	.	4G	.	.
4c	4A	4A	.	.
2d	2G	4B-	.	.
.	.	4c	.	.
2D	2A	[2d	2f#	.
=26	=26	=26	=26	=26
1G	1B	2d]	0g	1dd
.	.	1G	.	.
1C	1c	.	.	1ee-
.	.	[2c	.	.
=27	=27	=27	=27	=27
2r	1G	2c]	1g	1dd
1G	.	4B	.	.
.	.	4A	.	.
.	1d	4B	2r	2r
.	.	4c	.	.
2G	.	2d	[2g	[2b
=28	=28	=28	=28	=28
1G	2d	2G	4g]	4b]
.	.	.	4g	4b
.	2d	2.g	2g	2b
2C	1c	.	1e	1cc
.	.	4g	.	.
2C	.	2g	.	.
=29	=29	=29	=29	=29
2.F	2A	1c	1f	1cc
.	2.f	.	.	.
4E-	.	.	.	.
2.D	.	1d	2.f	2r
.	4e-	.	.	.
.	[2d	.	.	[2ff
4C	.	.	4e-	.
=30	=30	=30	=30	=30
2BB-	4d]	2.f	2.d	4ff]
.	4c	.	.	4ee-
2.B-	2B-	.	.	2.dd
.	.	4e-	4c	.
.	2f	2.d	2B-	.
4A	.	.	.	4cc
[2G	2g	.	[2b-	2b-
.	.	4c	.	.
=31	=31	=31	=31	=31
2G]	2d	2B-	4b-]	2.g
.	.	.	4a	.
2C	2e-	4c	1g	.
.	.	4B-	.	4g
1D	1d	4A	.	2dd
.	.	4G	.	.
.	.	2A	2f#	2dd
=32	=32	=32	=32	=32
2r	2r	2G	1g	1dd
2G	2B-	2d	.	.
2A	2c	1f	1r	1r
[2B-	[2d	.	.	.
=33	=33	=33	=33	=33
2B-]	2d]	1g	2r	0r
2c	2.e-	.	2g	.
2.G	.	2g	1b-	.
.	4d	.	.	.
.	2d	[2g	.	.
4B-	.	.	.	.
=34	=34	=34	=34	=34
0A	0c	2g]	1cc	0r
.	.	4f	.	.
.	.	4e	.	.
.	.	1f#	2cc	.
.	.	.	[2cc	.
=35	=35	=35	=35	=35
1G	1d	1g	4cc]	1r
.	.	.	8b-	.
.	.	.	8a	.
.	.	.	2b	.
1F	1f	2r	2cc	1a
.	.	2a	2f	.
=36	=36	=36	=36	=36
0r	2r	2e	2g	1cc
.	2a	2.f	2.a	.
.	2d	.	.	2.dd
.	.	4f	4a	.
.	[2g	2g	2b-	.
.	.	.	.	4dd
=37	=37	=37	=37	=37
0r	4g]	2d	1.a	2dd
.	4f	.	.	.
.	2f	2d	.	1dd
.	[1e	[1A	.	.
.	.	.	2a	4cc#
.	.	.	.	4b
=38	=38	=38	=38	=38
1r	2e]	1A]	1a	2cc#
.	2e	.	.	2cc#
1B-	1d	2r	1f	1dd
.	.	2d	.	.
=39	=39	=39	=39	=39
2B-	0r	2d	2f	1r
2G	.	2e-	2g	.
[1B-	.	[1d	2.f	2r
.	.	.	.	2ff
.	.	.	4e-	.
=40	=40	=40	=40	=40
1B-]	1r	1d]	4d	2ff
.	.	.	4c	.
.	.	.	2B-	2dd
1F	2r	1c	2A	[1ff
.	2f	.	2a	.
=41	=41	=41	=41	=41
0r	2f	1r	2a	1ff]
.	2d	.	2b-	.
.	1f	2r	1a	[1cc
.	.	[2f	.	.
=42	=42	=42	=42	=42
2r	1c	2f]	1g	1cc]
1c	.	1e	.	.
.	2r	.	1r	1r
2B-	[2f	2d	.	.
=43	=43	=43	=43	=43
1A	2f]	4c	2r	0r
.	.	4d	.	.
.	1e	4e	1cc	.
.	.	4f	.	.
2G	.	2g	.	.
2G	2d	2g	[2b-	.
=44	=44	=44	=44	=44
1F	2.f	2c	2b-]	2r
.	.	2F	1a	1cc
.	4e	.	.	.
1r	2d	2F	.	.
.	2d	2G	[2g	2b-
=45	=45	=45	=45	=45
0r	1c	2A	4g]	1a
.	.	.	4f	.
.	.	2F	1f	.
.	1r	1c	.	2g
.	.	.	2e	2g
=46	=46	=46	=46	=46
1.B-	1.d	0r	2f	1f
.	.	.	1f	.
.	.	.	.	1r
2G	2e-	.	2g	.
=47	=47	=47	=47	=47
0B-	0d	0r	2.f	2r
.	.	.	.	1ff
.	.	.	4e-	.
.	.	.	4d	.
.	.	.	4c	.
.	.	.	2B-	2dd
=48	=48	=48	=48	=48
1F	1c	2r	2A	0ff
.	.	1f	1a	.
1r	1r	.	.	.
.	.	2d	2b-	.
=49	=49	=49	=49	=49
1r	2r	1f	1a	2cc
.	2f	.	.	2cc
2r	2e	2c	2g	2.cc
2F	[2f	2c	2a	.
.	.	.	.	4b-
=50	=50	=50	=50	=50
2F	2f]	2c	2.f	2a
2D	2.F	2B-	.	2dd
.	.	.	4g	.
1F	.	1A	2a	[1cc
.	4G	.	.	.
.	4A	.	[2f	.
.	4B-	.	.	.
=51	=51	=51	=51	=51
1C	1c	1G	2f]	1cc]
.	.	.	2e	.
2r	1c	1F	2.f	1a
[2c	.	.	.	.
.	.	.	4e	.
=52	=52	=52	=52	=52
2c]	2r	1G	1d	1g
2B	1g	.	.	.
2c	.	1r	1r	2.a
2d	2f#	.	.	.
.	.	.	.	4b-
=53	=53	=53	=53	=53
1.c	2g	1r	1.e	1cc
.	2a	.	.	.
.	1g	2r	.	1r
2B-	.	[2g	2d	.
=54	=54	=54	=54	=54
1A	1c	2g]	2e	2r
.	.	2f#	2c	1cc
1G	1r	1g	1d	.
.	.	.	.	2b
=55	=55	=55	=55	=55
0r	2r	1a	1f	2cc
.	1f	.	.	2dd
.	.	1g	1c	[1cc
.	2e	.	.	.
=56	=56	=56	=56	=56
0r	2f	2a	0r	2cc]
.	2g	2.g	.	2b-
.	2c	.	.	1a
.	.	8f	.	.
.	.	8e	.	.
.	2d	2f#	.	.
=57	=57	=57	=57	=57
1C	1e-	2g	1r	2cc
.	.	1c	.	2cc
1G	2d	.	2r	1dd
.	2G	2B	[2g	.
=58	=58	=58	=58	=58
2r	1A	2c	2g]	2cc
2D	.	2d	2f#	2a
2E	2G	2c	2g	1cc
[2F	2F	[2c	2a	.
=59	=59	=59	=59	=59
4F]	2A	2c]	2a	1.dd
4F	.	.	.	.
2G	1d	2B-	1g	.
2D	.	1A	.	.
2D	2d	.	2f#	2dd
=60	=60	=60	=60	=60
0G	2d	2.B-	2g	1dd
.	2g	.	2b-	.
.	.	4A	.	.
.	1g	4G	1b-	2r
.	.	4A	.	.
.	.	4B-	.	2dd
.	.	4c	.	.
=61	=61	=61	=61	=61
0r	1.f	1d	1.a	1dd
.	.	1r	.	2.cc
.	4e	.	4g	.
.	4d	.	4f	4b-
=62	=62	=62	=62	=62
0r	2e	0r	2g	2cc
.	2d	.	2b-	2dd
.	2f	.	2a	2cc
.	2g	.	2g	2b-
=63	=63	=63	=63	=63
2r	1d	2r	1f	0a
2d	.	2d	.	.
1d	1r	1f	2r	.
.	.	.	2a	.
=64	=64	=64	=64	=64
2.c	0r	2.e	2a	0r
.	.	.	2g	.
4B	.	4d	.	.
2c	.	2e	2a	.
2d	.	2f	2b-	.
=65	=65	=65	=65	=65
2c	0r	2e-	2a	0r
2B-	.	2d	1g	.
1A	.	1c	.	.
.	.	.	2f#	.
=66	=66	=66	=66	=66
1G	2r	1d	1g	2r
.	2g	.	.	2b-
1r	2f	1r	2r	2a
.	2e	.	2c	2g
=67	=67	=67	=67	=67
1B-	2.d	2r	2d	2.f
.	.	2d	1f	.
.	4e	.	.	4g
2A	2f	2c	.	2a
2G	2g	[2B-	4e-	2b-
.	.	.	4d	.
=68	=68	=68	=68	=68
1F	1c	2B-]	0f	1cc
.	.	2A	.	.
1BB-	2r	1d	.	2b-
.	2B-	.	.	[2ff
=69	=69	=69	=69	=69
1C	2A	1c	1cc	2ff]
.	2G	.	.	2ee-
2.D	2.F	2r	2b-	1dd
.	.	[2f	[2a	.
4E-	4G	.	.	.
=70	=70	=70	=70	=70
2F	2A	4f]	2a]	2cc
.	.	4e-	.	.
2BB-	2B-	2d	2f	1b-
1F	1c	2c	1f	.
.	.	2F	.	2a
=71	=71	=71	=71	=71
1BB-	1B-	2r	1f	1b-
.	.	1B-	.	.
[1B-	2r	.	[1f	[1dd
.	[2B-	[2d	.	.
=72	=72	=72	=72	=72
1B-]	2B-]	4d]	1f]	1dd]
.	.	4e-	.	.
.	2.d	1f	.	.
1B-	.	.	1b-	1dd
.	4e-	.	.	.
.	[2f	2B-	.	.
=73	=73	=73	=73	=73
0F	2f]	1.c	0a	1cc
.	2f	.	.	.
.	2.f	.	.	[1dd
.	.	4B	.	.
.	4e-	4A	.	.
=74	=74	=74	=74	=74
1G	1d	1B	1g	1dd]
1C	1c	2c	1g	1ee-
.	.	2G	.	.
=75	=75	=75	=75	=75
[0D	1A	2r	1f#	1dd
.	.	1d	.	.
.	2r	.	[1a	1r
.	[2d	[2f	.	.
=76	=76	=76	=76	=76
0D]	2d]	2f]	1a]	2r
.	1f	2d	.	1dd
.	.	1d	[1a	.
.	2d	.	.	[2ff
=77	=77	=77	=77	=77
0r	2.d	2r	1a]	2ff]
.	.	2f	.	2dd
.	4c	.	.	.
.	1B-	2d	1g	1dd
.	.	2d	.	.
=78	=78	=78	=78	=78
0r	1A	1e	1a	1cc#
.	1G	1g	1b-	2.dd
.	.	.	.	4ee
=79	=79	=79	=79	=79
2r	2F	2c	2a	1ff
1F	1c	1f	1a	.
.	.	.	.	2r
2F	2c	2f	2a	[2ff
=80	=80	=80	=80	=80
0F	2.A	2f	0a	2ff]
.	.	4F	.	2ff
.	4G	4G	.	.
.	4F	4A	.	1ff
.	4G	4B-	.	.
.	4A	4c	.	.
.	4B-	4d	.	.
=81	=81	=81	=81	=81
1C	1c	4e	1g	1ee
.	.	4f	.	.
.	.	2g	.	.
[1F	2A	[1f	[1a	[1ff
.	[2c	.	.	.
=82	=82	=82	=82	=82
2F]	2c]	2f]	2a]	2ff]
2BB-	2B-	2f	2b-	2dd
1BB-	1B-	2f	2b-	1dd
.	.	2d	2f	.
=83	=83	=83	=83	=83
0r	1r	2e-	1g	1b-
.	.	2g	.	.
.	2r	2.f	1a	1cc
.	[2F	.	.	.
.	.	4e-	.	.
=84	=84	=84	=84	=84
1BB-	2F]	2d	1b-	1dd
.	1G	2d	.	.
1C	.	1c	2g	1ee-
.	[2A	.	4cc	.
.	.	.	4b-	.
=85	=85	=85	=85	=85
1D	2A]	1F	4a	4dd
.	.	.	4g	4cc
.	1B-	.	2f	4b-
.	.	.	.	4a
1E-	.	1G	2b-	1g
.	2c	.	4a	.
.	.	.	4g	.
=86	=86	=86	=86	=86
[0D	[0d	1A	4f#	1dd
.	.	.	4g	.
.	.	.	1a	.
.	.	1B-	.	[1dd
.	.	.	[2g	.
=87	=87	=87	=87	=87
0D]	0d]	0A	2g]	1dd]
.	.	.	4f#	.
.	.	.	4e	.
.	.	.	1f#	1a
=88	=88	=88	=88	=88
[0G	[0d	[0G	[0g	[0b
=89	=89	=89	=89	=89
0G]	0d]	0G]	0g]	0b]
*	*	*	*	*-
!! Crucifixus
*Ibass	*Itenor	*Itenor	*Icalto
!Bassus	!Tenor 2	!Tenor 1	!Altus
*clefF4	*clefGv2	*clefGv2	*clefG2
*k[b-]	*k[b-]	*k[b-]	*k[b-]
*G:dor	*G:dor	*G:dor	*G:dor
*M4/2	*M4/2	*M4/2	*M4/2
=90	=90	=90	=90
0G	0d	0B-	0g
=91	=91	=91	=91
1D	1d	1A	1f#
1G	1d	1B	1g
=92	=92	=92	=92
1C	1e	1c	1g
[1F	[1f	[1c	[1a
=93	=93	=93	=93
2F]	2f]	2c]	2a]
2G	2d	2B-	2g
2D	2d	1A	2.f
2F	[2d	.	.
.	.	.	4d
=94	=94	=94	=94
1E	4d]	2.G	1.g
.	8c	.	.
.	8B	.	.
.	2c#	.	.
.	.	4A	.
1D	1d	4B-	.
.	.	4c	.
.	.	[2d	2f
=95	=95	=95	=95
2r	1A	2d]	1e
2A	.	2c#	.
2.B-	1r	1d	2d
.	.	.	2f
4A	.	.	.
=96	=96	=96	=96
2G	1d	2r	2b-
2F#	.	2A	2a
2.G	2.e-	2.B-	1g
4F	4d	4A	.
=97	=97	=97	=97
2E-	2c	2G	1r
2D	2B-	2F	.
1C	1e-	1c	2r
.	.	.	2g
=98	=98	=98	=98
1BB-	2d	1F	2.b-
.	2d	.	.
.	.	.	4a
2r	2e-	1r	2g
2D	2d	.	2f#
=99	=99	=99	=99
2.E-	2c	2r	2.g
.	2B-	1G	.
4D	.	.	4f
2C	2c	.	2e-
2BB-	2F	[2B-	2d
=100	=100	=100	=100
1F	2r	4B-]	1c
.	.	8A	.
.	.	8G	.
.	1f	2A	.
2BB-	.	1B-	1B-
[2B-	2d	.	.
=101	=101	=101	=101
2B-]	0d	2r	1r
2G	.	1B-	.
1G	.	.	[1b-
.	.	2G	.
=102	=102	=102	=102
1E-	1e-	2G	2b-]
.	.	2B-	2g
1C	1e-	[1c	2g
.	.	.	[2a
=103	=103	=103	=103
0D	0d	2c]	2a]
.	.	2B-	1g
.	.	1A	.
.	.	.	2f#
=104	=104	=104	=104
0G	1d	4G	2g
.	.	4A	.
.	.	4B-	2g
.	.	4c	.
.	2r	1d	[1b-
.	2G	.	.
=105	=105	=105	=105
0r	2B-	0r	2b-]
.	2c	.	2a
.	2d	.	2f
.	2e	.	2g
=106	=106	=106	=106
1r	2.f	0r	2.a
.	4d	.	4b-
2r	2e	.	2g
2D	[2f	.	[2a
=107	=107	=107	=107
2F	4f]	0r	2a]
.	4e	.	.
2G	1d	.	4g
.	.	.	4f
2A	.	.	1e
2A	2c#	.	.
=108	=108	=108	=108
2.B-	[0d	2.G	1d
4G	.	4G	.
2A	.	2F#	1r
[2B-	.	[2G	.
=109	=109	=109	=109
4B-]	1d]	4G]	1r
4A	.	4A	.
1G	.	4B-	.
.	.	4G	.
.	1r	1A	2r
2F#	.	.	2a
=110	=110	=110	=110
1G	1d	2G	1b-
.	.	2B-	.
1C	1e-	1c	2g
.	.	.	2g
=111	=111	=111	=111
1F	2c	2A	2.a
.	2c	1A	.
.	.	.	4g
1D	2.d	.	4f
.	.	.	4e
.	.	[2d	[2f
.	4c	.	.
=112	=112	=112	=112
1G	4B-	2d]	2f]
.	4A	.	.
.	1B-	4c	2e
.	.	4B-	.
1F	.	1c	1f
.	2A	.	.
=113	=113	=113	=113
0BB-	[0B-	1d	2r
.	.	.	2d
.	.	2r	2d
.	.	2f	4B-
.	.	.	4c
=114	=114	=114	=114
1r	1B-]	2f	4d
.	.	.	4e
.	.	4d	2f
.	.	4e	.
2r	1r	4f	4d
.	.	4g	4e
2F	.	2a	4f
.	.	.	4g
=115	=115	=115	=115
2F	0r	2.f	2.a
4D	.	.	.
4E	.	4e	4g
4F	.	2d	2f
4G	.	.	.
2A	.	4c	4e
.	.	4d	4f
=116	=116	=116	=116
2G	0r	4e	4g
.	.	8d	8f
.	.	8e	8g
2F	.	1f	2a
1c	.	.	1g
.	.	2e	.
=117	=117	=117	=117
0d	2r	1f	1f
.	2B-	.	.
.	2B-	2r	1r
.	4G	2d	.
.	4A	.	.
=118	=118	=118	=118
0r	4B-	2d	2r
.	4c	.	.
.	2d	4B-	2f
.	.	4c	.
.	[1B-	4d	2f
.	.	4e	.
.	.	2f	4d
.	.	.	4e
=119	=119	=119	=119
0r	2B-]	2d	4f
.	.	.	4g
.	2A	2c	2a
.	2c	2e	2g
.	[2d	[2f	2f
=120	=120	=120	=120
0r	4d]	4f]	1d
.	4c	4e	.
.	2B-	2.d	.
.	1A	.	1e
.	.	8c	.
.	.	8B	.
.	.	2c#	.
=121	=121	=121	=121
2r	2r	2.d	1d
2D	2f	.	.
.	.	8c	.
.	.	8B-	.
2D	2f	2A	2r
4BB-	4d	2B-	2d
4C	4e	.	.
=122	=122	=122	=122
4D	4f	1F	2d
4E	4g	.	.
2F	2a	.	2A
2E-	2g	1r	2c
2D	2f	.	2d
=123	=123	=123	=123
2.G	1d	2r	2.B-
.	.	2B-	.
4A	.	.	4c
2.B-	2r	2B-	2d
.	[2g	4G	4B-
4A	.	4A	4c
=124	=124	=124	=124
2G	2g]	4B-	4d
.	.	4c	4e
2D	2.f	2d	4f
.	.	.	4g
2F	.	2c	4a
.	4e-	.	8g
.	.	.	8a
2G	[2d	2B-	[2b-
=125	=125	=125	=125
1E-	4d]	1G	4b-]
.	8c	.	4a
.	8B-	.	.
.	2c	.	1g
1D	1d	1A	.
.	.	.	2f#
=126	=126	=126	=126
[0G	[0d	[0B	[0g
=127	=127	=127	=127
0G]	0d]	0B]	0g]
*-	*-	*-	*-
!! Et iterum
**kern	**kern	**kern	**kern	**kern
*Ibass	*Itenor	*Itenor	*Icalto	*Icant
!Bassus	!Tenor 2	!Tenor 1	!Altus	!Cantus
*clefF4	*clefGv2	*clefGv2	*clefG2	*clefG2
*k[b-]	*k[b-]	*k[b-]	*k[b-]	*k[b-]
*G:dor	*G:dor	*G:dor	*G:dor	*G:dor
*M4/2	*M4/2	*M4/2	*M4/2	*M4/2
=128	=128	=128	=128	=128
1G	1B	1g	1r	1dd
2C	2c	2e	1g	2ee
2C	2c	2e	.	2ee
=129	=129	=129	=129	=129
1F	2A	1c	2a	2.ff
.	2c	.	2a	.
.	.	.	.	4ee-
1G	2.B-	1g	[1b-	4dd
.	.	.	.	4cc
.	.	.	.	[2dd
.	4c	.	.	.
=130	=130	=130	=130	=130
2B-	2d	2.f	2b-]	2dd]
2F	2A	.	2a	2cc
.	.	4e	.	.
1G	2.B-	2d	1g	1b-
.	.	2G	.	.
.	4c	.	.	.
=131	=131	=131	=131	=131
1D	1d	1A	1f#	1a
2r	1G	1B-	2g	1dd
2G	.	.	2d	.
=132	=132	=132	=132	=132
2G	1r	2B-	2e	1r
2A	.	2c	2f#	.
4B-	1G	1d	1g	2r
4A	.	.	.	.
4G	.	.	.	2b-
4F	.	.	.	.
=133	=133	=133	=133	=133
4E-	2G	1e-	1r	2b-
4D	.	.	.	.
2C	2A	.	.	2cc
2G	2B-	2d	[1g	2dd
2C	[2c	2c	.	[2ee-
=134	=134	=134	=134	=134
1G	2c]	1d	2g]	2ee-]
.	2B-	.	2g	1dd
1C	1e-	2r	1g	.
.	.	[2g	.	2cc
=135	=135	=135	=135	=135
0r	2d	2g]	0a	1dd
.	1d	1f	.	.
.	.	.	.	1r
.	[2c	4e	.	.
.	.	4d	.	.
=136	=136	=136	=136	=136
0r	2c]	2e	1g	2r
.	2B-	2d	.	1dd
.	2A	2a	2f	.
.	2A	2a	2e	[2cc
=137	=137	=137	=137	=137
1G	4G	2.d	2g	2cc]
.	4A	.	.	.
.	4B-	.	2g	2b-
.	4G	4e	.	.
[1F	4A	4f	[1c	2.a
.	4G	4g	.	.
.	4F	[2a	.	.
.	4G	.	.	4b-
=138	=138	=138	=138	=138
2F]	4A	2a]	1c]	2cc
.	4B-	.	.	.
2E	2.c	2g	.	2cc
2D	.	1f	2r	2dd
.	4B	.	.	.
2D	4B	.	2f	[2ff
.	4A	.	.	.
=139	=139	=139	=139	=139
1C	1c	2r	1g	2ff]
.	.	2c	.	2ee
1r	1r	1d	1b-	1dd
=140	=140	=140	=140	=140
1F	2r	1f	1a	1cc
.	1f	.	.	.
1A	.	1c	2r	2r
.	2e	.	2a	2cc
=141	=141	=141	=141	=141
1B-	1d	1r	2f	2dd
.	.	.	2g	2dd
1A	1e	2r	2.a	2.cc
.	.	2c	.	.
.	.	.	4g	4b-
=142	=142	=142	=142	=142
2r	2r	2d	2f	4a
.	.	.	.	4g
2A	2c	2e	2e	1a
2F	2d	2f	2r	.
2G	2d	2d	2g	2b
=143	=143	=143	=143	=143
2.A	2.c	1a	2e	0cc
.	.	.	2e	.
4G	4B-	.	.	.
4F	4A	2.a	2.f	.
4E	4G	.	.	.
[2F	[2A	.	.	.
.	.	4g	4g	.
=144	=144	=144	=144	=144
2F]	2A]	2f	2a	0dd
2G	2B-	2d	1g	.
1D	1A	[1d	.	.
.	.	.	2f#	.
=145	=145	=145	=145	=145
1G	2.B-	1d]	1g	2r
.	.	.	.	1dd
.	4c	.	.	.
1r	1d	[1f	2r	.
.	.	.	[2a	2dd
=146	=146	=146	=146	=146
0r	0r	2f]	2a]	1.cc
.	.	2f	2a	.
.	.	2e	2g	.
.	.	2d	2f	2b
=147	=147	=147	=147	=147
0r	0r	2e	2g	1cc
.	.	2.f	2.a	.
.	.	.	.	[1dd
.	.	4e	4g	.
.	.	4d	4f	.
.	.	4c	4e	.
=148	=148	=148	=148	=148
0r	1r	2B-	2d	2dd]
.	.	2A	2f	2cc
.	2r	2G	2.g	2b-
.	[2d	2G	.	2b-
.	.	.	4f	.
=149	=149	=149	=149	=149
1r	2d]	1A	2e	1a
.	2c	.	2e	.
2r	4f	2r	2d	1r
.	4e	.	.	.
[2G	4d	[2d	[2b-	.
.	4c	.	.	.
=150	=150	=150	=150	=150
2G]	2B-	2d]	2b-]	0r
2F	2c	2f	2a	.
2B-	4d	2d	2g	.
.	4e	.	.	.
2A	[2f	2c	2f	.
=151	=151	=151	=151	=151
1G	2f]	2d	4g	0r
.	.	.	4a	.
.	2e	4c	1b-	.
.	.	4B-	.	.
1F	1f	1c	.	.
.	.	.	2a	.
=152	=152	=152	=152	=152
1BB-	1.d	1B-	2b-	2r
.	.	.	1f	1b-
1r	.	1r	.	.
.	2e	.	2g	2cc
=153	=153	=153	=153	=153
0r	2f	0r	2a	2dd
.	2g	.	2b-	2dd
.	1c	.	1cc	1ee-
=154	=154	=154	=154	=154
0r	2d	0r	2b-	2dd
.	2f	.	2a	1cc
.	2e-	.	2g	.
.	2d	.	2f	2b-
=155	=155	=155	=155	=155
0r	1c	1r	2.cc	2a
.	.	.	.	1g
.	.	.	4b-	.
.	1d	2r	1a	.
.	.	[2d	.	2f#
=156	=156	=156	=156	=156
2r	1G	2d]	2g	2g
1G	.	2d	1b-	1dd
.	1r	1g	.	.
2G	.	.	2b-	2dd
=157	=157	=157	=157	=157
1d	0r	2f	1a	1ff
.	.	2d	.	.
2c	.	2e	2a	2ee
2A	.	[2f	2a	2cc
=158	=158	=158	=158	=158
2B-	1r	2f]	2f	2dd
2B-	.	4e	2g	2dd
.	.	4d	.	.
1A	2r	2e	1a	1cc#
.	[2A	2e	.	.
=159	=159	=159	=159	=159
1.D	2A]	1d	1.f	2r
.	2A	.	.	1dd
.	2B-	2r	.	.
2D	2A	[2d	2f	2dd
=160	=160	=160	=160	=160
2G	2G	2d]	2g	2b-
2F#	2d	2d	2a	2a
[1G	2r	2.B-	[1b-	4g
.	.	.	.	4a
.	[2d	.	.	4b-
.	.	4A	.	4cc
=161	=161	=161	=161	=161
1G]	2d]	1G	1b-]	1dd
.	1g	.	.	.
1D	.	2A	2a	2dd
.	4f#	2d	2a	2dd
.	4e	.	.	.
=162	=162	=162	=162	=162
0r	2f#	2d	2a	2dd
.	2g	2g	2b-	2dd
.	2c	2g	2cc	2ee-
.	2d	2f#	2a	2dd
=163	=163	=163	=163	=163
1r	1G	1g	1b-	1dd
2r	[1A	2e	1a	2cc#
[2A	.	[2c#	.	[2ee
=164	=164	=164	=164	=164
2A]	1A]	2c#]	2r	2ee]
2A	.	2c#	1a	2ee
1D	2r	2d	.	2ff#
.	[2d	2A	2a	2ff#
=165	=165	=165	=165	=165
1G	2d]	2G	2b	2.gg
.	2d	2.g	2b	.
.	.	.	.	4ff
1C	2e	.	2.cc	4ee
.	.	4f	.	4dd
.	2e	4e	.	[2cc
.	.	4d	4b-	.
=166	=166	=166	=166	=166
2.F	2f	2c	4a	2cc]
.	.	.	4g	.
.	1a	2A	1f	1ff
4E	.	.	.	.
2D	.	1A	.	.
2C#	2e	.	[2a	[2ee
=167	=167	=167	=167	=167
1D	1f	0A	2a]	2ee]
.	.	.	2a	1dd
1A	1e	.	1a	.
.	.	.	.	2cc#
=168	=168	=168	=168	=168
1B-	1d	2r	1f	1dd
.	.	2d	.	.
2B-	2f	2d	2r	1r
2A	2f	2c	2cc	.
=169	=169	=169	=169	=169
1G	2e	1g	2cc	0r
.	1d	.	2b-	.
1A	.	2e	1a	.
.	2c	[2f	.	.
=170	=170	=170	=170	=170
1B-	1d	4f]	2.f	0r
.	.	4e	.	.
.	.	2d	.	.
.	.	.	4g	.
2A	2e	2c	2a	.
2G	2e	2B-	2b-	.
=171	=171	=171	=171	=171
2.F	1f	2c	0a	2r
.	.	2d	.	2ff
4G	.	.	.	.
1A	1r	2d	.	2ff
.	.	2c	.	2ee
=172	=172	=172	=172	=172
0r	1f	2.B-	0r	2.dd
.	.	4A	.	4cc
.	2f	2B-	.	2dd
.	2e	2c	.	2g
=173	=173	=173	=173	=173
0r	2d	2B-	2r	2g
.	2c	2A	2cc	2f#
.	1d	1G	2cc	1g
.	.	.	2b-	.
=174	=174	=174	=174	=174
0r	2.f	0r	2.a	1cc
.	4e	.	4g	.
.	4d	.	2a	1dd
.	4c	.	.	.
.	2B-	.	2b-	.
=175	=175	=175	=175	=175
1r	2F	2r	2a	2cc
.	2G	1d	2g	2b-
2r	1d	.	2f	1a
2d	.	[2f	2a	.
=176	=176	=176	=176	=176
2d	0r	2f]	2a	0r
2c	.	2e	2a	.
2.B-	.	2.d	2g	.
.	.	.	2f	.
4A	.	4c	.	.
=177	=177	=177	=177	=177
2B-	2r	2d	2g	0r
2c	2c	2e	2g	.
1A	2e	1c	[1cc	.
.	2f	.	.	.
=178	=178	=178	=178	=178
1G	2.g	2d	2cc]	1r
.	.	2d	2b-	.
.	8f	.	.	.
.	8e	.	.	.
1r	2f	2d	1r	1a
.	2d	[2f	.	.
=179	=179	=179	=179	=179
2r	1r	2f]	1a	2cc
2D	.	2d	.	1dd
2D	2r	1a	2f	.
[2F	2A	.	[2f	2cc
=180	=180	=180	=180	=180
2F]	2c	1a	2f]	1ff
2D	1d	.	2f	.
1A	.	2r	2a	1ee
.	2c	[2a	2e	.
=181	=181	=181	=181	=181
2D	2f	4a]	1a	4dd
.	.	4g	.	4ee
1d	4d	4f	.	4ff
.	4e	4e	.	4gg
.	4f	2d	1a	2ff
.	4g	.	.	.
2c#	2a	2A	.	[2ee
=182	=182	=182	=182	=182
1d	2f	4d	0a	2ee]
.	.	4e	.	.
.	2f	4f	.	1dd
.	.	4g	.	.
1A	1e	2a	.	.
.	.	2e	.	2cc#
=183	=183	=183	=183	=183
1D	2d	0f#	1a	0dd
.	1a	.	.	.
1d	.	.	2r	.
.	[2d	.	2a	.
=184	=184	=184	=184	=184
1G	2d]	1g	1b	1dd
.	2.g	.	.	.
[1c	.	1e	2.cc	1g
.	4f	.	.	.
.	[2e	.	.	.
.	.	.	4b-	.
=185	=185	=185	=185	=185
2c]	2e]	2c	2a	0cc
2B-	2d	2d	2.g	.
1A	1c	2e	.	.
.	.	.	4f	.
.	.	2f	[2f	.
=186	=186	=186	=186	=186
1G	2d	1g	2f]	1b-
.	2B-	.	2e	.
2.F	1c	1r	2f	1a
.	.	.	[2a	.
4E	.	.	.	.
=187	=187	=187	=187	=187
1D	1.f	1.d	2a]	0r
.	.	.	2b-	.
1r	.	.	2a	.
.	2g	2e-	2g	.
=188	=188	=188	=188	=188
0r	2f	2d	1a	1r
.	2e	2c	.	.
.	1f#	2.d	1a	2r
.	.	.	.	[2dd
.	.	4c	.	.
=189	=189	=189	=189	=189
0r	1g	2B-	2r	2dd]
.	.	2c	2g	2ee-
.	2r	2d	2f#	2dd
.	2g	2e-	2g	2cc
=190	=190	=190	=190	=190
2r	2f#	1.d	2a	2dd
1G	2.g	.	2b-	2dd
.	.	.	1g	2b-
.	4f	.	.	.
2C	2e-	4c	.	[2cc
.	.	4B-	.	.
=191	=191	=191	=191	=191
2.D	1d	2A	2f	4cc]
.	.	.	.	4b-
.	.	1F	2f	1b-
4E-	.	.	.	.
1F	1c	.	1f	.
.	.	[2f	.	2a
=192	=192	=192	=192	=192
0BB-	0B-	2f]	1d	2.b-
.	.	2f	.	.
.	.	.	.	4cc
.	.	1d	[1f	1dd
=193	=193	=193	=193	=193
0F	0A	1c	1f]	1r
.	.	1F	1a	[1ff
=194	=194	=194	=194	=194
0C	0c	0G	0g	1ff]
.	.	.	.	1ee
=195	=195	=195	=195	=195
1BB-	0d	1B-	2r	1ff
.	.	.	2d	.
1D	.	2A	1f	1dd
.	.	[2B-	.	.
=196	=196	=196	=196	=196
1E-	0G	2B-]	[0g	1b-
.	.	2G	.	.
1C	.	1e-	.	1cc
=197	=197	=197	=197	=197
1.G	1B-	1d	0g]	2.dd
.	.	.	.	4cc
.	1B-	[1d	.	4b-
.	.	.	.	4a
2G	.	.	.	[2g
=198	=198	=198	=198	=198
0D	1.A	1d]	1.a	2g]
.	.	.	.	4f#
.	.	.	.	4e
.	.	2.d	.	2f#
.	2A	.	2d	2f#
.	.	4c	.	.
=199	=199	=199	=199	=199
2r	1G	4B-	1d	2g
.	.	4c	.	.
1d	.	4d	.	1b-
.	.	4e	.	.
.	1F	1f	1r	.
2c	.	.	.	2a
=200	=200	=200	=200	=200
2.B-	1.G	[0d	1.b-	4g
.	.	.	.	4a
.	.	.	.	4b-
4A	.	.	.	4cc
2G	.	.	.	2.dd
2F#	2A	.	2a	.
.	.	.	.	4cc
=201	=201	=201	=201	=201
0G	1.B-	0d]	2.g	2b-
.	.	.	.	2g
.	.	.	8f	.
.	.	.	8e-	.
.	.	.	2d	2.b-
.	4A	.	[2g	.
.	4G	.	.	4cc
=202	=202	=202	=202	=202
0D	0A	1r	2g]	1dd
.	.	.	4f	.
.	.	.	4e	.
.	.	[1d	1f#	1a
=203	=203	=203	=203	=203
1.G	1.G	2d]	[0g	2b-
.	.	2c	.	2cc
.	.	2B-	.	1dd
2F	2A	2A	.	.
=204	=204	=204	=204	=204
2.E-	1B-	1G	1g_	1.ee-
4D	.	.	.	.
2C	[1c	2.g	1g_	.
2BB	.	.	.	2dd
.	.	4f	.	.
=205	=205	=205	=205	=205
0C	2c]	2e-	0g]	0cc
.	2d	2d	.	.
.	1e-	1c	.	.
=206	=206	=206	=206	=206
[0G	[0d	[0B	[0g	[0dd
=207	=207	=207	=207	=207
0G]	0d]	0B]	0g]	0dd]
==	==	==	==	==
*-	*-	*-	*-	*-
!!!CDT: 1525/^1526/-1594/2/2
!!!OCY: Italia
!!!AGN: Mass (Parody)
!!!AST: renaissance, vocal
!!!ASW: Motet (unidentified (Pal?))
!!!PWK: Masses, Book 4
!!!RNB: Cadence finals: D
!!!YOR: Le Opere Complete, v. 10, p. 115
!!!YOO: Rome, Italy: Fratelli Scalera
!!!END: 1992//
!!!EED: John Miller
!!!YEC: Copyright 2000, John Miller
!!!YEN: United States of America
!!!YEM: Rights to all derivative electronic formats reserved.
!!!YEM: Refer to licensing agreement for further details.
!!!YEM: This file must be accompanied by the licensing agreement.
!!!YEM: A copy of the licensing agreement may be found at http://www.music-cog.ohio-state.edu/HumdrumDatabases/Palestrina/license.txt
!!!EMD: converted to Humdrum by Bret Aarden
